X:44
T:The Reichswall Forest                                                                             
M:4/4                                                                                               
L:1/8                                                                                               
K:G                                                                                                 
dGeG dGBc|dGBd g2 fg|dGeG dGBd|cAFA c2 Bc|                                                          
dGeG dGBc|dGBd g2 ga|(3bag fa gdBd|cAFA c2 Bc :|                                                    
dgfg dgbg|dGBd g2 fg|dgfg bgdB|cAFA c2 Bc|                                                          
dgfg dgbg|dGBd g2 ga|(3bag fa gdBd|cAFA c2 Bc :|
